packages/icons/src/emoji/svg/star.svg

<svg width="120" height="120" viewBox="0 0 120 120" fill="none" xmlns="http://www.w3.org/2000/svg">
<path d="M40.7625 91.7156L46.2094 69.525L28.875 55.125L51.4781 53.3156L60 32.5125L68.5219 53.3156L91.125 55.125L73.7906 69.525L79.2375 91.7156L60 79.5468L40.7625 91.7156Z" fill="#FCC21B"/>
<path d="M9.99372 26.6063C12.6656 28.1625 15.3 29.7844 18.0093 31.2938C21.7218 33.3751 25.4718 35.5501 29.4 37.1719C30.7781 37.7438 31.8843 36.7501 32.4375 35.5782C33.0375 34.2938 32.3343 33.4219 31.7437 32.2876C30.2062 29.3532 28.7343 26.3813 26.9718 23.5782C25.1906 20.7282 23.8218 17.5969 21.7218 14.9532L21.5343 14.7282C20.4937 13.4157 19.2 11.6251 17.3437 11.7751C15.5437 11.9251 14.4281 13.4344 13.1437 14.5407C10.9781 16.3969 9.27184 18.8157 7.84684 21.2626C7.24684 22.3032 6.57184 23.7001 7.39684 24.8438C7.99684 25.6501 9.14997 26.1188 9.99372 26.6063ZM22.5093 83.0719C19.5093 83.7657 16.4812 84.3938 13.5281 85.3313C10.5562 86.2688 7.40622 86.7657 4.51872 88.0407L4.28434 88.1532C2.84997 88.7813 0.928094 89.5313 0.637469 91.2375C0.346844 92.9063 1.45309 94.2563 2.14684 95.6719C3.30934 98.0626 5.09059 100.172 6.96559 102.028C7.77184 102.825 8.86872 103.753 10.0875 103.266C10.9687 102.928 11.6625 101.981 12.2812 101.344C14.3156 99.3 16.4062 97.2938 18.3937 95.2125C21.15 92.3532 23.9812 89.4844 26.3718 86.3251C27.2062 85.2094 26.5781 83.9813 25.6406 83.2125C24.6281 82.3782 23.6718 82.8094 22.5093 83.0719ZM90.6 37.1719C94.5281 35.5407 98.2687 33.3657 101.991 31.2938C104.691 29.7844 107.334 28.1625 110.016 26.6063C110.85 26.1188 112.012 25.6501 112.603 24.8344C113.437 23.6907 112.762 22.3032 112.153 21.2532C110.737 18.8063 109.022 16.3876 106.856 14.5313C105.572 13.4251 104.466 11.9157 102.656 11.7657C100.809 11.6157 99.5062 13.4063 98.4656 14.7188L98.2781 14.9438C96.1687 17.5969 94.8093 20.7188 93.0187 23.5688C91.2656 26.3813 89.7843 29.3438 88.2468 32.2782C87.6562 33.4219 86.9531 34.2938 87.5531 35.5688C88.1062 36.7501 89.2218 37.7438 90.6 37.1719ZM115.725 88.1626L115.481 88.05C112.603 86.7657 109.453 86.2782 106.472 85.3407C103.519 84.4032 100.5 83.7751 97.4906 83.0813C96.3187 82.8188 95.3625 82.3876 94.35 83.2313C93.4218 84 92.7843 85.2282 93.6187 86.3438C96.0093 89.5032 98.8594 92.3719 101.597 95.2313C103.594 97.3126 105.675 99.3188 107.709 101.363C108.337 102.009 109.031 102.947 109.912 103.284C111.131 103.772 112.228 102.834 113.034 102.047C114.909 100.191 116.7 98.0813 117.862 95.6907C118.556 94.2657 119.653 92.9157 119.372 91.2563C119.072 89.5407 117.159 88.7907 115.725 88.1626Z" fill="#F79329"/>
<path d="M83.8683 72.8437L109.031 51.9469C109.837 51.2812 110.156 50.1937 109.837 49.2C109.681 48.714 109.386 48.2848 108.987 47.9663C108.589 47.6477 108.105 47.454 107.596 47.4094L74.7558 44.7937L62.3808 14.5781C62.1856 14.107 61.8553 13.7042 61.4315 13.4206C61.0077 13.137 60.5095 12.9852 59.9995 12.9844C58.9589 12.9844 58.012 13.6125 57.6183 14.5781L45.2433 44.7937L12.4026 47.4094C11.3526 47.4937 10.4808 48.1969 10.162 49.2C9.84327 50.2031 10.162 51.2812 10.9683 51.9469L36.1401 72.8437L28.2276 105.066C27.9839 106.078 28.3776 107.147 29.2214 107.766C30.0745 108.375 31.2183 108.412 32.0995 107.85L59.9995 90.1875L87.8995 107.841C88.7808 108.394 89.9245 108.366 90.7776 107.756C91.6214 107.147 92.0245 106.078 91.7714 105.056L83.8683 72.8437ZM40.762 91.7156L46.2183 69.525L28.8745 55.125L51.4776 53.3156L59.9995 32.5125L68.5214 53.3156L91.1245 55.125L73.7901 69.525L79.237 91.7156L59.9995 79.5469L40.762 91.7156Z" fill="#F79329"/>
</svg>

<svg xmlns="http://www.w3.org/2000/svg" fill="none" aria-hidden="true" data-slot="icon" viewBox="0 0 120 120"><path fill="#FCC21B" d="m40.763 91.716 5.446-22.191-17.334-14.4 22.603-1.81L60 32.514l8.522 20.803 22.603 1.809-17.334 14.4 5.447 22.19L60 79.548z"/><path fill="#F79329" d="M9.994 26.606c2.672 1.556 5.306 3.178 8.015 4.688 3.713 2.081 7.463 4.256 11.391 5.878 1.378.572 2.484-.422 3.038-1.594.6-1.284-.104-2.156-.694-3.29-1.538-2.935-3.01-5.907-4.772-8.71-1.781-2.85-3.15-5.981-5.25-8.625l-.188-.225c-1.04-1.312-2.334-3.103-4.19-2.953-1.8.15-2.916 1.66-4.2 2.766-2.166 1.856-3.872 4.275-5.297 6.722-.6 1.04-1.275 2.437-.45 3.58.6.807 1.753 1.276 2.597 1.763m12.515 56.466c-3 .694-6.028 1.322-8.98 2.26-2.973.937-6.123 1.434-9.01 2.709l-.235.112C2.85 88.781.928 89.531.637 91.237c-.29 1.67.816 3.02 1.51 4.435 1.162 2.39 2.944 4.5 4.819 6.356.806.797 1.903 1.725 3.122 1.238.88-.338 1.575-1.285 2.193-1.922 2.035-2.044 4.125-4.05 6.113-6.131 2.756-2.86 5.587-5.729 7.978-8.888.834-1.116.206-2.344-.731-3.112-1.013-.835-1.97-.404-3.132-.141m68.091-45.9c3.928-1.631 7.669-3.806 11.391-5.878 2.7-1.51 5.343-3.131 8.025-4.688.834-.487 1.996-.956 2.587-1.772.834-1.143.159-2.53-.45-3.58-1.416-2.448-3.131-4.866-5.297-6.723-1.284-1.106-2.39-2.615-4.2-2.765-1.847-.15-3.15 1.64-4.19 2.953l-.188.225c-2.11 2.653-3.469 5.775-5.26 8.625-1.752 2.812-3.234 5.775-4.771 8.71-.59 1.143-1.294 2.015-.694 3.29.553 1.181 1.669 2.175 3.047 1.603m25.125 50.99-.244-.112c-2.878-1.284-6.028-1.772-9.009-2.71-2.953-.937-5.972-1.565-8.981-2.259-1.172-.262-2.129-.693-3.141.15-.928.769-1.566 1.997-.731 3.113 2.39 3.16 5.24 6.028 7.978 8.887 1.997 2.082 4.078 4.088 6.112 6.132.628.646 1.322 1.584 2.203 1.921 1.219.488 2.316-.45 3.122-1.237 1.875-1.856 3.666-3.966 4.828-6.356.694-1.425 1.791-2.775 1.51-4.435-.3-1.715-2.213-2.465-3.647-3.093"/><path fill="#F79329" d="m83.868 72.844 25.163-20.897c.806-.666 1.125-1.753.806-2.747a2.59 2.59 0 0 0-2.241-1.79l-32.84-2.616L62.38 14.578a2.58 2.58 0 0 0-2.382-1.594c-1.04 0-1.987.629-2.38 1.594L45.242 44.794l-32.84 2.615a2.555 2.555 0 0 0-2.241 1.791 2.55 2.55 0 0 0 .806 2.747L36.14 72.844l-7.912 32.222a2.6 2.6 0 0 0 .993 2.7 2.58 2.58 0 0 0 2.878.084L60 90.188l27.9 17.653a2.59 2.59 0 0 0 2.879-.085 2.57 2.57 0 0 0 .993-2.7zM40.762 91.716l5.456-22.191-17.344-14.4 22.604-1.81 8.521-20.802 8.522 20.803 22.603 1.809-17.334 14.4 5.447 22.19L60 79.548z"/></svg>
